X:60
%
T:Burn's Farwell
C:J.Kennedy
L:1/8
M:C
Q:1/4=90
K:C treble
ed | c2 A2 A2 GE | c2 e2 d2 ^cd | e2 e2 d2 ^cd | e2 G2 G2 ed | 
c2 A2 A2 GE | c2 e2 d2 ^cd | e2 a2 gede | c2 A2 A2 ||
e^f | g2 a2 g2 ^fd | a2 g2 g2 ag | =f2 e2 d2 ^cd | e2 G2 G2 ed |
c2 A2 A2 GE | c2 e2 d2 ^cd | e2 a2 gede | c2 A2 A2 ||

%
% From O'Neill's Music of Ireland, No. 270
%
